X:1
T: Lady Montgomerie
C:Lord Eglintoun
R:Reel
Q: 232
K:Bb
M:4/4
L:1/8
|:d|B2 BF DE FD|B2 BG AB cd|B1/2B1/2B BF DE FD|Cc cB AB cd|
B2 BF DE FD|B2 BG AB cd|B1/2B1/2B BF DE FD|Cc cB AB cd|
B1/2B1/2B fB dB f2|B1/2B1/2B fB de fb|B1/2B1/2B fB dB fB|ed cB AB cd|
B1/2B1/2B fB dB f2|Bg fe de fg|fd ec dB cA|1BG FD Cc c:|2BG FA B2||
